(G-CODE GENERATED BY FLATCAM v8.994 - www.flatcam.org - Version Date: 2020/11/7)

(Name: EPSolar-CAN.drl_cnc)
(Type: G-code from Geometry)
(Units: MM)

(Created on Friday, 06 August 2021 at 01:00)

(This preprocessor is the default preprocessor used by FlatCAM.)
(It is made to work with MACH3 compatible motion controllers.)


(TOOLS DIAMETER: )
(Tool: 1 -> Dia: 0.76)
(Tool: 2 -> Dia: 0.8)
(Tool: 3 -> Dia: 1.0)
(Tool: 4 -> Dia: 1.52)
(Tool: 5 -> Dia: 3.2)
(Tool: 6 -> Dia: 3.2)
(Tool: 7 -> Dia: 3.2)
(Tool: 8 -> Dia: 3.2)

(FEEDRATE Z: )
(Tool: 1 -> Feedrate: 300)
(Tool: 2 -> Feedrate: 300)
(Tool: 3 -> Feedrate: 300)
(Tool: 4 -> Feedrate: 300)
(Tool: 5 -> Feedrate: 300)
(Tool: 6 -> Feedrate: 300)
(Tool: 7 -> Feedrate: 300)
(Tool: 8 -> Feedrate: 300)

(FEEDRATE RAPIDS: )
(Tool: 1 -> Feedrate Rapids: 1500)
(Tool: 2 -> Feedrate Rapids: 1500)
(Tool: 3 -> Feedrate Rapids: 1500)
(Tool: 4 -> Feedrate Rapids: 1500)
(Tool: 5 -> Feedrate Rapids: 1500)
(Tool: 6 -> Feedrate Rapids: 1500)
(Tool: 7 -> Feedrate Rapids: 1500)
(Tool: 8 -> Feedrate Rapids: 1500)

(Z_CUT: )
(Tool: 1 -> Z_Cut: -1.7)
(Tool: 2 -> Z_Cut: -1.7)
(Tool: 3 -> Z_Cut: -2.1)
(Tool: 4 -> Z_Cut: -1.7)
(Tool: 5 -> Z_Cut: -1.7)
(Tool: 6 -> Z_Cut: -1.7)
(Tool: 7 -> Z_Cut: -1.7)
(Tool: 8 -> Z_Cut: -1.7)

(Tools Offset: )
(Tool: 3 -> Offset Z: 0.0)

(Z_MOVE: )
(Tool: 1 -> Z_Move: 2)
(Tool: 2 -> Z_Move: 2)
(Tool: 3 -> Z_Move: 2)
(Tool: 4 -> Z_Move: 2)
(Tool: 5 -> Z_Move: 2)
(Tool: 6 -> Z_Move: 2)
(Tool: 7 -> Z_Move: 2)
(Tool: 8 -> Z_Move: 2)

(Z Toolchange: 15 mm)
(X,Y Toolchange: 0.0000, 0.0000 mm)
(Z Start: None mm)
(Z End: 0.5 mm)
(X,Y End: None mm)
(Steps per circle: 64)
(Preprocessor Excellon: default)

(X range:    2.2100 ...   77.8000  mm)
(Y range:    2.7750 ...   53.4160  mm)

(Spindle Speed: 0 RPM)
G21
G90
G94

G01 F300.00

M5
G00 Z15.0000
T3
G00 X0.0000 Y0.0000                
M6
(MSG, Change to Tool Dia = 1.0000 ||| Total drills for tool T3 = 15)
M0
G00 Z15.0000

G01 F300.00
M03
G00 X27.4320 Y48.7680
G01 Z-2.1000
G01 Z0
G00 Z2.0000
G00 X29.9720 Y48.7680
G01 Z-2.1000
G01 Z0
G00 Z2.0000
G00 X71.6280 Y47.6250
G01 Z-2.1000
G01 Z0
G00 Z2.0000
G00 X71.6280 Y45.0850
G01 Z-2.1000
G01 Z0
G00 Z2.0000
G00 X74.5490 Y32.5120
G01 Z-2.1000
G01 Z0
G00 Z2.0000
G00 X74.5490 Y29.9720
G01 Z-2.1000
G01 Z0
G00 Z2.0000
G00 X77.0890 Y32.5120
G01 Z-2.1000
G01 Z0
G00 Z2.0000
G00 X77.0890 Y29.9720
G01 Z-2.1000
G01 Z0
G00 Z2.0000
G00 X77.0890 Y27.4320
G01 Z-2.1000
G01 Z0
G00 Z2.0000
G00 X74.5490 Y27.4320
G01 Z-2.1000
G01 Z0
G00 Z2.0000
G00 X73.4060 Y19.5580
G01 Z-2.1000
G01 Z0
G00 Z2.0000
G00 X73.4060 Y17.0180
G01 Z-2.1000
G01 Z0
G00 Z2.0000
G00 X73.4060 Y14.4780
G01 Z-2.1000
G01 Z0
G00 Z2.0000
G00 X29.8450 Y13.3350
G01 Z-2.1000
G01 Z0
G00 Z2.0000
G00 X29.8450 Y15.8750
G01 Z-2.1000
G01 Z0
G00 Z2.0000
M05
G00 Z0.50


