(G-CODE GENERATED BY FLATCAM v8.994 - www.flatcam.org - Version Date: 2020/11/7)

(Name: EPSolar-CAN-Edge_Cuts.gbr_cutout_cnc)
(Type: G-code from Geometry)
(Units: MM)

(Created on Friday, 06 August 2021 at 00:59)

(This preprocessor is the default preprocessor used by FlatCAM.)
(It is made to work with MACH3 compatible motion controllers.)

(TOOL DIAMETER: 1.1 mm)
(Feedrate_XY: 120.0 mm/min)
(Feedrate_Z: 60.0 mm/min)
(Feedrate rapids 1500.0 mm/min)

(Z_Cut: -2.1 mm)
(DepthPerCut: 0.6 mm <=>4 passes)
(Z_Move: 2.0 mm)
(Z Start: None mm)
(Z End: 15.0 mm)
(X,Y End: None mm)
(Steps per circle: 64)
(Preprocessor Geometry: default)

(X range:   -0.5750 ...   80.5850  mm)
(Y range:   -0.5750 ...   56.2010  mm)

(Spindle Speed: 0.0 RPM)
G21
G90
G94

G01 F120.00

M5
G00 Z15.0000
G00 X0.0000 Y0.0000
T1
M6    
(MSG, Change to Tool Dia = 1.1000)
M0
G00 Z15.0000

M03
G01 F120.00
G00 X-0.5750 Y27.0130
G01 F60.00
G01 Z-0.6000
G01 F120.00
G01 X-0.5750 Y-0.0250
G01 X-0.5724 Y-0.0789
G01 X-0.5644 Y-0.1323
G01 X-0.5513 Y-0.1847
G01 X-0.5331 Y-0.2355
G01 X-0.5101 Y-0.2843
G01 X-0.4823 Y-0.3306
G01 X-0.4502 Y-0.3739
G01 X-0.4139 Y-0.4139
G01 X-0.3739 Y-0.4502
G01 X-0.3306 Y-0.4823
G01 X-0.2843 Y-0.5101
G01 X-0.2355 Y-0.5331
G01 X-0.1847 Y-0.5513
G01 X-0.1323 Y-0.5644
G01 X-0.0789 Y-0.5724
G01 X-0.0250 Y-0.5750
G01 X39.2050 Y-0.5750
G00 X39.2050 Y-0.5750
G01 F60.00
G01 Z-1.2000
G01 F120.00
G01 X-0.0250 Y-0.5750
G01 X-0.0789 Y-0.5724
G01 X-0.1323 Y-0.5644
G01 X-0.1847 Y-0.5513
G01 X-0.2355 Y-0.5331
G01 X-0.2843 Y-0.5101
G01 X-0.3306 Y-0.4823
G01 X-0.3739 Y-0.4502
G01 X-0.4139 Y-0.4139
G01 X-0.4502 Y-0.3739
G01 X-0.4823 Y-0.3306
G01 X-0.5101 Y-0.2843
G01 X-0.5331 Y-0.2355
G01 X-0.5513 Y-0.1847
G01 X-0.5644 Y-0.1323
G01 X-0.5724 Y-0.0789
G01 X-0.5750 Y-0.0250
G01 X-0.5750 Y27.0130
G00 X-0.5750 Y27.0130
G01 F60.00
G01 Z-1.8000
G01 F120.00
G01 X-0.5750 Y-0.0250
G01 X-0.5724 Y-0.0789
G01 X-0.5644 Y-0.1323
G01 X-0.5513 Y-0.1847
G01 X-0.5331 Y-0.2355
G01 X-0.5101 Y-0.2843
G01 X-0.4823 Y-0.3306
G01 X-0.4502 Y-0.3739
G01 X-0.4139 Y-0.4139
G01 X-0.3739 Y-0.4502
G01 X-0.3306 Y-0.4823
G01 X-0.2843 Y-0.5101
G01 X-0.2355 Y-0.5331
G01 X-0.1847 Y-0.5513
G01 X-0.1323 Y-0.5644
G01 X-0.0789 Y-0.5724
G01 X-0.0250 Y-0.5750
G01 X39.2050 Y-0.5750
G00 X39.2050 Y-0.5750
G01 F60.00
G01 Z-2.1000
G01 F120.00
G01 X-0.0250 Y-0.5750
G01 X-0.0789 Y-0.5724
G01 X-0.1323 Y-0.5644
G01 X-0.1847 Y-0.5513
G01 X-0.2355 Y-0.5331
G01 X-0.2843 Y-0.5101
G01 X-0.3306 Y-0.4823
G01 X-0.3739 Y-0.4502
G01 X-0.4139 Y-0.4139
G01 X-0.4502 Y-0.3739
G01 X-0.4823 Y-0.3306
G01 X-0.5101 Y-0.2843
G01 X-0.5331 Y-0.2355
G01 X-0.5513 Y-0.1847
G01 X-0.5644 Y-0.1323
G01 X-0.5724 Y-0.0789
G01 X-0.5750 Y-0.0250
G01 X-0.5750 Y27.0130
G00 Z2.0000
G00 X-0.5750 Y28.6130
G01 F60.00
G01 Z-0.6000
G01 F120.00
G01 X-0.5750 Y55.6510
G01 X-0.5724 Y55.7049
G01 X-0.5644 Y55.7583
G01 X-0.5513 Y55.8107
G01 X-0.5331 Y55.8615
G01 X-0.5101 Y55.9103
G01 X-0.4823 Y55.9566
G01 X-0.4502 Y55.9999
G01 X-0.4139 Y56.0399
G01 X-0.3739 Y56.0762
G01 X-0.3306 Y56.1083
G01 X-0.2843 Y56.1361
G01 X-0.2355 Y56.1591
G01 X-0.1847 Y56.1773
G01 X-0.1323 Y56.1904
G01 X-0.0789 Y56.1984
G01 X-0.0250 Y56.2010
G01 X39.2050 Y56.2010
G00 X39.2050 Y56.2010
G01 F60.00
G01 Z-1.2000
G01 F120.00
G01 X-0.0250 Y56.2010
G01 X-0.0789 Y56.1984
G01 X-0.1323 Y56.1904
G01 X-0.1847 Y56.1773
G01 X-0.2355 Y56.1591
G01 X-0.2843 Y56.1361
G01 X-0.3306 Y56.1083
G01 X-0.3739 Y56.0762
G01 X-0.4139 Y56.0399
G01 X-0.4502 Y55.9999
G01 X-0.4823 Y55.9566
G01 X-0.5101 Y55.9103
G01 X-0.5331 Y55.8615
G01 X-0.5513 Y55.8107
G01 X-0.5644 Y55.7583
G01 X-0.5724 Y55.7049
G01 X-0.5750 Y55.6510
G01 X-0.5750 Y28.6130
G00 X-0.5750 Y28.6130
G01 F60.00
G01 Z-1.8000
G01 F120.00
G01 X-0.5750 Y55.6510
G01 X-0.5724 Y55.7049
G01 X-0.5644 Y55.7583
G01 X-0.5513 Y55.8107
G01 X-0.5331 Y55.8615
G01 X-0.5101 Y55.9103
G01 X-0.4823 Y55.9566
G01 X-0.4502 Y55.9999
G01 X-0.4139 Y56.0399
G01 X-0.3739 Y56.0762
G01 X-0.3306 Y56.1083
G01 X-0.2843 Y56.1361
G01 X-0.2355 Y56.1591
G01 X-0.1847 Y56.1773
G01 X-0.1323 Y56.1904
G01 X-0.0789 Y56.1984
G01 X-0.0250 Y56.2010
G01 X39.2050 Y56.2010
G00 X39.2050 Y56.2010
G01 F60.00
G01 Z-2.1000
G01 F120.00
G01 X-0.0250 Y56.2010
G01 X-0.0789 Y56.1984
G01 X-0.1323 Y56.1904
G01 X-0.1847 Y56.1773
G01 X-0.2355 Y56.1591
G01 X-0.2843 Y56.1361
G01 X-0.3306 Y56.1083
G01 X-0.3739 Y56.0762
G01 X-0.4139 Y56.0399
G01 X-0.4502 Y55.9999
G01 X-0.4823 Y55.9566
G01 X-0.5101 Y55.9103
G01 X-0.5331 Y55.8615
G01 X-0.5513 Y55.8107
G01 X-0.5644 Y55.7583
G01 X-0.5724 Y55.7049
G01 X-0.5750 Y55.6510
G01 X-0.5750 Y28.6130
G00 Z2.0000
G00 X40.8050 Y56.2010
G01 F60.00
G01 Z-0.6000
G01 F120.00
G01 X80.0350 Y56.2010
G01 X80.0889 Y56.1984
G01 X80.1423 Y56.1904
G01 X80.1947 Y56.1773
G01 X80.2455 Y56.1591
G01 X80.2943 Y56.1361
G01 X80.3406 Y56.1083
G01 X80.3839 Y56.0762
G01 X80.4239 Y56.0399
G01 X80.4602 Y55.9999
G01 X80.4923 Y55.9566
G01 X80.5201 Y55.9103
G01 X80.5431 Y55.8615
G01 X80.5613 Y55.8107
G01 X80.5744 Y55.7583
G01 X80.5824 Y55.7049
G01 X80.5850 Y55.6510
G01 X80.5850 Y28.6130
G00 X80.5850 Y28.6130
G01 F60.00
G01 Z-1.2000
G01 F120.00
G01 X80.5850 Y55.6510
G01 X80.5824 Y55.7049
G01 X80.5744 Y55.7583
G01 X80.5613 Y55.8107
G01 X80.5431 Y55.8615
G01 X80.5201 Y55.9103
G01 X80.4923 Y55.9566
G01 X80.4602 Y55.9999
G01 X80.4239 Y56.0399
G01 X80.3839 Y56.0762
G01 X80.3406 Y56.1083
G01 X80.2943 Y56.1361
G01 X80.2455 Y56.1591
G01 X80.1947 Y56.1773
G01 X80.1423 Y56.1904
G01 X80.0889 Y56.1984
G01 X80.0350 Y56.2010
G01 X40.8050 Y56.2010
G00 X40.8050 Y56.2010
G01 F60.00
G01 Z-1.8000
G01 F120.00
G01 X80.0350 Y56.2010
G01 X80.0889 Y56.1984
G01 X80.1423 Y56.1904
G01 X80.1947 Y56.1773
G01 X80.2455 Y56.1591
G01 X80.2943 Y56.1361
G01 X80.3406 Y56.1083
G01 X80.3839 Y56.0762
G01 X80.4239 Y56.0399
G01 X80.4602 Y55.9999
G01 X80.4923 Y55.9566
G01 X80.5201 Y55.9103
G01 X80.5431 Y55.8615
G01 X80.5613 Y55.8107
G01 X80.5744 Y55.7583
G01 X80.5824 Y55.7049
G01 X80.5850 Y55.6510
G01 X80.5850 Y28.6130
G00 X80.5850 Y28.6130
G01 F60.00
G01 Z-2.1000
G01 F120.00
G01 X80.5850 Y55.6510
G01 X80.5824 Y55.7049
G01 X80.5744 Y55.7583
G01 X80.5613 Y55.8107
G01 X80.5431 Y55.8615
G01 X80.5201 Y55.9103
G01 X80.4923 Y55.9566
G01 X80.4602 Y55.9999
G01 X80.4239 Y56.0399
G01 X80.3839 Y56.0762
G01 X80.3406 Y56.1083
G01 X80.2943 Y56.1361
G01 X80.2455 Y56.1591
G01 X80.1947 Y56.1773
G01 X80.1423 Y56.1904
G01 X80.0889 Y56.1984
G01 X80.0350 Y56.2010
G01 X40.8050 Y56.2010
G00 Z2.0000
G00 X80.5850 Y27.0130
G01 F60.00
G01 Z-0.6000
G01 F120.00
G01 X80.5850 Y-0.0250
G01 X80.5824 Y-0.0789
G01 X80.5744 Y-0.1323
G01 X80.5613 Y-0.1847
G01 X80.5431 Y-0.2355
G01 X80.5201 Y-0.2843
G01 X80.4923 Y-0.3306
G01 X80.4602 Y-0.3739
G01 X80.4239 Y-0.4139
G01 X80.3839 Y-0.4502
G01 X80.3406 Y-0.4823
G01 X80.2943 Y-0.5101
G01 X80.2455 Y-0.5331
G01 X80.1947 Y-0.5513
G01 X80.1423 Y-0.5644
G01 X80.0889 Y-0.5724
G01 X80.0350 Y-0.5750
G01 X40.8050 Y-0.5750
G00 X40.8050 Y-0.5750
G01 F60.00
G01 Z-1.2000
G01 F120.00
G01 X80.0350 Y-0.5750
G01 X80.0889 Y-0.5724
G01 X80.1423 Y-0.5644
G01 X80.1947 Y-0.5513
G01 X80.2455 Y-0.5331
G01 X80.2943 Y-0.5101
G01 X80.3406 Y-0.4823
G01 X80.3839 Y-0.4502
G01 X80.4239 Y-0.4139
G01 X80.4602 Y-0.3739
G01 X80.4923 Y-0.3306
G01 X80.5201 Y-0.2843
G01 X80.5431 Y-0.2355
G01 X80.5613 Y-0.1847
G01 X80.5744 Y-0.1323
G01 X80.5824 Y-0.0789
G01 X80.5850 Y-0.0250
G01 X80.5850 Y27.0130
G00 X80.5850 Y27.0130
G01 F60.00
G01 Z-1.8000
G01 F120.00
G01 X80.5850 Y-0.0250
G01 X80.5824 Y-0.0789
G01 X80.5744 Y-0.1323
G01 X80.5613 Y-0.1847
G01 X80.5431 Y-0.2355
G01 X80.5201 Y-0.2843
G01 X80.4923 Y-0.3306
G01 X80.4602 Y-0.3739
G01 X80.4239 Y-0.4139
G01 X80.3839 Y-0.4502
G01 X80.3406 Y-0.4823
G01 X80.2943 Y-0.5101
G01 X80.2455 Y-0.5331
G01 X80.1947 Y-0.5513
G01 X80.1423 Y-0.5644
G01 X80.0889 Y-0.5724
G01 X80.0350 Y-0.5750
G01 X40.8050 Y-0.5750
G00 X40.8050 Y-0.5750
G01 F60.00
G01 Z-2.1000
G01 F120.00
G01 X80.0350 Y-0.5750
G01 X80.0889 Y-0.5724
G01 X80.1423 Y-0.5644
G01 X80.1947 Y-0.5513
G01 X80.2455 Y-0.5331
G01 X80.2943 Y-0.5101
G01 X80.3406 Y-0.4823
G01 X80.3839 Y-0.4502
G01 X80.4239 Y-0.4139
G01 X80.4602 Y-0.3739
G01 X80.4923 Y-0.3306
G01 X80.5201 Y-0.2843
G01 X80.5431 Y-0.2355
G01 X80.5613 Y-0.1847
G01 X80.5744 Y-0.1323
G01 X80.5824 Y-0.0789
G01 X80.5850 Y-0.0250
G01 X80.5850 Y27.0130
G00 Z2.0000
M05
G00 Z2.0000
G00 Z15.00


