(G-CODE GENERATED BY FLATCAM v8.994 - www.flatcam.org - Version Date: 2020/11/7)

(Name: CAN2Serial-Edge_Cuts.gbr_cutout_cnc)
(Type: G-code from Geometry)
(Units: MM)

(Created on Tuesday, 27 July 2021 at 10:11)

(This preprocessor is the default preprocessor used by FlatCAM.)
(It is made to work with MACH3 compatible motion controllers.)

(TOOL DIAMETER: 1.1 mm)
(Feedrate_XY: 120.0 mm/min)
(Feedrate_Z: 60.0 mm/min)
(Feedrate rapids 1500.0 mm/min)

(Z_Cut: -2.1 mm)
(DepthPerCut: 0.6 mm <=>4 passes)
(Z_Move: 2.0 mm)
(Z Start: None mm)
(Z End: 15.0 mm)
(X,Y End: None mm)
(Steps per circle: 64)
(Preprocessor Geometry: default)

(X range:   -0.5750 ...   67.8850  mm)
(Y range:   -0.5750 ...   52.6450  mm)

(Spindle Speed: 0.0 RPM)
G21
G90
G94

G01 F120.00

M5
G00 Z15.0000
G00 X0.0000 Y0.0000
T1
M6    
(MSG, Change to Tool Dia = 1.1000)
M0
G00 Z15.0000

M03
G01 F120.00
G00 X-0.5743 Y-0.0270
G01 F60.00
G01 Z-0.6000
G01 F120.00
G01 X-0.5750 Y0.0000
G01 X-0.5750 Y52.0700
G01 X-0.5742 Y52.0994
G01 X-0.5689 Y52.1532
G01 X-0.5580 Y52.2085
G01 X-0.5410 Y52.2649
G01 X-0.5193 Y52.3169
G01 X-0.4925 Y52.3667
G01 X-0.4626 Y52.4115
G01 X-0.4269 Y52.4552
G01 X-0.3870 Y52.4952
G01 X-0.3435 Y52.5311
G01 X-0.2945 Y52.5638
G01 X-0.2447 Y52.5903
G01 X-0.1926 Y52.6118
G01 X-0.1385 Y52.6280
G01 X-0.0856 Y52.6386
G01 X-0.0294 Y52.6442
G01 X0.0000 Y52.6450
G01 X67.3100 Y52.6450
G01 X67.3394 Y52.6442
G01 X67.3932 Y52.6389
G01 X67.4485 Y52.6280
G01 X67.5049 Y52.6110
G01 X67.5569 Y52.5893
G01 X67.6067 Y52.5625
G01 X67.6515 Y52.5326
G01 X67.6952 Y52.4969
G01 X67.7352 Y52.4570
G01 X67.7711 Y52.4135
G01 X67.8038 Y52.3645
G01 X67.8303 Y52.3147
G01 X67.8518 Y52.2626
G01 X67.8680 Y52.2085
G01 X67.8786 Y52.1556
G01 X67.8842 Y52.0994
G01 X67.8850 Y52.0700
G01 X67.8850 Y0.0000
G01 X67.8842 Y-0.0294
G01 X67.8789 Y-0.0832
G01 X67.8680 Y-0.1385
G01 X67.8510 Y-0.1949
G01 X67.8293 Y-0.2469
G01 X67.8025 Y-0.2967
G01 X67.7726 Y-0.3415
G01 X67.7369 Y-0.3852
G01 X67.6970 Y-0.4252
G01 X67.6535 Y-0.4611
G01 X67.6045 Y-0.4938
G01 X67.5547 Y-0.5203
G01 X67.5026 Y-0.5418
G01 X67.4485 Y-0.5580
G01 X67.3956 Y-0.5686
G01 X67.3394 Y-0.5742
G01 X67.3100 Y-0.5750
G01 X0.0000 Y-0.5750
G01 X-0.0294 Y-0.5742
G01 X-0.0856 Y-0.5686
G01 X-0.1409 Y-0.5575
G01 X-0.1949 Y-0.5410
G01 X-0.2469 Y-0.5193
G01 X-0.2967 Y-0.4925
G01 X-0.3435 Y-0.4611
G01 X-0.3870 Y-0.4252
G01 X-0.4269 Y-0.3852
G01 X-0.4626 Y-0.3415
G01 X-0.4938 Y-0.2945
G01 X-0.5203 Y-0.2447
G01 X-0.5418 Y-0.1926
G01 X-0.5580 Y-0.1385
G01 X-0.5689 Y-0.0832
G01 X-0.5743 Y-0.0270
G00 X-0.5743 Y-0.0270
G01 F60.00
G01 Z-1.2000
G01 F120.00
G01 X-0.5750 Y0.0000
G01 X-0.5750 Y52.0700
G01 X-0.5742 Y52.0994
G01 X-0.5689 Y52.1532
G01 X-0.5580 Y52.2085
G01 X-0.5410 Y52.2649
G01 X-0.5193 Y52.3169
G01 X-0.4925 Y52.3667
G01 X-0.4626 Y52.4115
G01 X-0.4269 Y52.4552
G01 X-0.3870 Y52.4952
G01 X-0.3435 Y52.5311
G01 X-0.2945 Y52.5638
G01 X-0.2447 Y52.5903
G01 X-0.1926 Y52.6118
G01 X-0.1385 Y52.6280
G01 X-0.0856 Y52.6386
G01 X-0.0294 Y52.6442
G01 X0.0000 Y52.6450
G01 X67.3100 Y52.6450
G01 X67.3394 Y52.6442
G01 X67.3932 Y52.6389
G01 X67.4485 Y52.6280
G01 X67.5049 Y52.6110
G01 X67.5569 Y52.5893
G01 X67.6067 Y52.5625
G01 X67.6515 Y52.5326
G01 X67.6952 Y52.4969
G01 X67.7352 Y52.4570
G01 X67.7711 Y52.4135
G01 X67.8038 Y52.3645
G01 X67.8303 Y52.3147
G01 X67.8518 Y52.2626
G01 X67.8680 Y52.2085
G01 X67.8786 Y52.1556
G01 X67.8842 Y52.0994
G01 X67.8850 Y52.0700
G01 X67.8850 Y0.0000
G01 X67.8842 Y-0.0294
G01 X67.8789 Y-0.0832
G01 X67.8680 Y-0.1385
G01 X67.8510 Y-0.1949
G01 X67.8293 Y-0.2469
G01 X67.8025 Y-0.2967
G01 X67.7726 Y-0.3415
G01 X67.7369 Y-0.3852
G01 X67.6970 Y-0.4252
G01 X67.6535 Y-0.4611
G01 X67.6045 Y-0.4938
G01 X67.5547 Y-0.5203
G01 X67.5026 Y-0.5418
G01 X67.4485 Y-0.5580
G01 X67.3956 Y-0.5686
G01 X67.3394 Y-0.5742
G01 X67.3100 Y-0.5750
G01 X0.0000 Y-0.5750
G01 X-0.0294 Y-0.5742
G01 X-0.0856 Y-0.5686
G01 X-0.1409 Y-0.5575
G01 X-0.1949 Y-0.5410
G01 X-0.2469 Y-0.5193
G01 X-0.2967 Y-0.4925
G01 X-0.3435 Y-0.4611
G01 X-0.3870 Y-0.4252
G01 X-0.4269 Y-0.3852
G01 X-0.4626 Y-0.3415
G01 X-0.4938 Y-0.2945
G01 X-0.5203 Y-0.2447
G01 X-0.5418 Y-0.1926
G01 X-0.5580 Y-0.1385
G01 X-0.5689 Y-0.0832
G01 X-0.5743 Y-0.0270
G00 X-0.5743 Y-0.0270
G01 F60.00
G01 Z-1.8000
G01 F120.00
G01 X-0.5750 Y0.0000
G01 X-0.5750 Y52.0700
G01 X-0.5742 Y52.0994
G01 X-0.5689 Y52.1532
G01 X-0.5580 Y52.2085
G01 X-0.5410 Y52.2649
G01 X-0.5193 Y52.3169
G01 X-0.4925 Y52.3667
G01 X-0.4626 Y52.4115
G01 X-0.4269 Y52.4552
G01 X-0.3870 Y52.4952
G01 X-0.3435 Y52.5311
G01 X-0.2945 Y52.5638
G01 X-0.2447 Y52.5903
G01 X-0.1926 Y52.6118
G01 X-0.1385 Y52.6280
G01 X-0.0856 Y52.6386
G01 X-0.0294 Y52.6442
G01 X0.0000 Y52.6450
G01 X67.3100 Y52.6450
G01 X67.3394 Y52.6442
G01 X67.3932 Y52.6389
G01 X67.4485 Y52.6280
G01 X67.5049 Y52.6110
G01 X67.5569 Y52.5893
G01 X67.6067 Y52.5625
G01 X67.6515 Y52.5326
G01 X67.6952 Y52.4969
G01 X67.7352 Y52.4570
G01 X67.7711 Y52.4135
G01 X67.8038 Y52.3645
G01 X67.8303 Y52.3147
G01 X67.8518 Y52.2626
G01 X67.8680 Y52.2085
G01 X67.8786 Y52.1556
G01 X67.8842 Y52.0994
G01 X67.8850 Y52.0700
G01 X67.8850 Y0.0000
G01 X67.8842 Y-0.0294
G01 X67.8789 Y-0.0832
G01 X67.8680 Y-0.1385
G01 X67.8510 Y-0.1949
G01 X67.8293 Y-0.2469
G01 X67.8025 Y-0.2967
G01 X67.7726 Y-0.3415
G01 X67.7369 Y-0.3852
G01 X67.6970 Y-0.4252
G01 X67.6535 Y-0.4611
G01 X67.6045 Y-0.4938
G01 X67.5547 Y-0.5203
G01 X67.5026 Y-0.5418
G01 X67.4485 Y-0.5580
G01 X67.3956 Y-0.5686
G01 X67.3394 Y-0.5742
G01 X67.3100 Y-0.5750
G01 X0.0000 Y-0.5750
G01 X-0.0294 Y-0.5742
G01 X-0.0856 Y-0.5686
G01 X-0.1409 Y-0.5575
G01 X-0.1949 Y-0.5410
G01 X-0.2469 Y-0.5193
G01 X-0.2967 Y-0.4925
G01 X-0.3435 Y-0.4611
G01 X-0.3870 Y-0.4252
G01 X-0.4269 Y-0.3852
G01 X-0.4626 Y-0.3415
G01 X-0.4938 Y-0.2945
G01 X-0.5203 Y-0.2447
G01 X-0.5418 Y-0.1926
G01 X-0.5580 Y-0.1385
G01 X-0.5689 Y-0.0832
G01 X-0.5743 Y-0.0270
G00 X-0.5743 Y-0.0270
G01 F60.00
G01 Z-2.1000
G01 F120.00
G01 X-0.5750 Y0.0000
G01 X-0.5750 Y52.0700
G01 X-0.5742 Y52.0994
G01 X-0.5689 Y52.1532
G01 X-0.5580 Y52.2085
G01 X-0.5410 Y52.2649
G01 X-0.5193 Y52.3169
G01 X-0.4925 Y52.3667
G01 X-0.4626 Y52.4115
G01 X-0.4269 Y52.4552
G01 X-0.3870 Y52.4952
G01 X-0.3435 Y52.5311
G01 X-0.2945 Y52.5638
G01 X-0.2447 Y52.5903
G01 X-0.1926 Y52.6118
G01 X-0.1385 Y52.6280
G01 X-0.0856 Y52.6386
G01 X-0.0294 Y52.6442
G01 X0.0000 Y52.6450
G01 X67.3100 Y52.6450
G01 X67.3394 Y52.6442
G01 X67.3932 Y52.6389
G01 X67.4485 Y52.6280
G01 X67.5049 Y52.6110
G01 X67.5569 Y52.5893
G01 X67.6067 Y52.5625
G01 X67.6515 Y52.5326
G01 X67.6952 Y52.4969
G01 X67.7352 Y52.4570
G01 X67.7711 Y52.4135
G01 X67.8038 Y52.3645
G01 X67.8303 Y52.3147
G01 X67.8518 Y52.2626
G01 X67.8680 Y52.2085
G01 X67.8786 Y52.1556
G01 X67.8842 Y52.0994
G01 X67.8850 Y52.0700
G01 X67.8850 Y0.0000
G01 X67.8842 Y-0.0294
G01 X67.8789 Y-0.0832
G01 X67.8680 Y-0.1385
G01 X67.8510 Y-0.1949
G01 X67.8293 Y-0.2469
G01 X67.8025 Y-0.2967
G01 X67.7726 Y-0.3415
G01 X67.7369 Y-0.3852
G01 X67.6970 Y-0.4252
G01 X67.6535 Y-0.4611
G01 X67.6045 Y-0.4938
G01 X67.5547 Y-0.5203
G01 X67.5026 Y-0.5418
G01 X67.4485 Y-0.5580
G01 X67.3956 Y-0.5686
G01 X67.3394 Y-0.5742
G01 X67.3100 Y-0.5750
G01 X0.0000 Y-0.5750
G01 X-0.0294 Y-0.5742
G01 X-0.0856 Y-0.5686
G01 X-0.1409 Y-0.5575
G01 X-0.1949 Y-0.5410
G01 X-0.2469 Y-0.5193
G01 X-0.2967 Y-0.4925
G01 X-0.3435 Y-0.4611
G01 X-0.3870 Y-0.4252
G01 X-0.4269 Y-0.3852
G01 X-0.4626 Y-0.3415
G01 X-0.4938 Y-0.2945
G01 X-0.5203 Y-0.2447
G01 X-0.5418 Y-0.1926
G01 X-0.5580 Y-0.1385
G01 X-0.5689 Y-0.0832
G01 X-0.5743 Y-0.0270
G00 Z2.0000
M05
G00 Z2.0000
G00 Z15.00


