(G-CODE GENERATED BY FLATCAM v8.994 - www.flatcam.org - Version Date: 2020/11/7)

(Name: CAN2Serial.drl_cnc)
(Type: G-code from Geometry)
(Units: MM)

(Created on Tuesday, 27 July 2021 at 10:12)

(This preprocessor is the default preprocessor used by FlatCAM.)
(It is made to work with MACH3 compatible motion controllers.)


(TOOLS DIAMETER: )
(Tool: 1 -> Dia: 0.6)
(Tool: 2 -> Dia: 0.8)
(Tool: 3 -> Dia: 1.0)
(Tool: 4 -> Dia: 1.52)
(Tool: 5 -> Dia: 3.2)

(FEEDRATE Z: )
(Tool: 1 -> Feedrate: 300)
(Tool: 2 -> Feedrate: 300)
(Tool: 3 -> Feedrate: 300)
(Tool: 4 -> Feedrate: 300)
(Tool: 5 -> Feedrate: 300)

(FEEDRATE RAPIDS: )
(Tool: 1 -> Feedrate Rapids: 1500)
(Tool: 2 -> Feedrate Rapids: 1500)
(Tool: 3 -> Feedrate Rapids: 1500)
(Tool: 4 -> Feedrate Rapids: 1500)
(Tool: 5 -> Feedrate Rapids: 1500)

(Z_CUT: )
(Tool: 1 -> Z_Cut: -1.7)
(Tool: 2 -> Z_Cut: -2.0)
(Tool: 3 -> Z_Cut: -1.7)
(Tool: 4 -> Z_Cut: -1.7)
(Tool: 5 -> Z_Cut: -1.7)

(Tools Offset: )
(Tool: 2 -> Offset Z: 0.0)

(Z_MOVE: )
(Tool: 1 -> Z_Move: 2)
(Tool: 2 -> Z_Move: 2.0)
(Tool: 3 -> Z_Move: 2)
(Tool: 4 -> Z_Move: 2)
(Tool: 5 -> Z_Move: 2)

(Z Toolchange: 15 mm)
(X,Y Toolchange: 0.0000, 0.0000 mm)
(Z Start: None mm)
(Z End: 0.5 mm)
(X,Y End: None mm)
(Steps per circle: 64)
(Preprocessor Excellon: default)

(X range:    2.2100 ...   65.2700  mm)
(Y range:    1.8860 ...   49.8600  mm)

(Spindle Speed: 0 RPM)
G21
G90
G94

G01 F300.00

M5
G00 Z15.0000
T2
G00 X0.0000 Y0.0000                
M6
(MSG, Change to Tool Dia = 0.8000 ||| Total drills for tool T2 = 36)
M0
G00 Z15.0000

G01 F300.00
M03
G00 X15.9820 Y15.0830
G01 Z-2.0000
G01 Z0
G00 Z2.0000
G00 X12.7000 Y17.7800
G01 Z-2.0000
G01 Z0
G00 Z2.0000
G00 X12.7000 Y20.3200
G01 Z-2.0000
G01 Z0
G00 Z2.0000
G00 X12.7000 Y22.8600
G01 Z-2.0000
G01 Z0
G00 Z2.0000
G00 X12.7000 Y25.4000
G01 Z-2.0000
G01 Z0
G00 Z2.0000
G00 X5.0800 Y17.7800
G01 Z-2.0000
G01 Z0
G00 Z2.0000
G00 X5.0800 Y20.3200
G01 Z-2.0000
G01 Z0
G00 Z2.0000
G00 X5.0800 Y22.8600
G01 Z-2.0000
G01 Z0
G00 Z2.0000
G00 X5.0800 Y25.4000
G01 Z-2.0000
G01 Z0
G00 Z2.0000
G00 X5.0800 Y27.9400
G01 Z-2.0000
G01 Z0
G00 Z2.0000
G00 X5.0800 Y30.4800
G01 Z-2.0000
G01 Z0
G00 Z2.0000
G00 X5.0800 Y33.0200
G01 Z-2.0000
G01 Z0
G00 Z2.0000
G00 X5.0800 Y35.5600
G01 Z-2.0000
G01 Z0
G00 Z2.0000
G00 X12.7000 Y27.9400
G01 Z-2.0000
G01 Z0
G00 Z2.0000
G00 X12.7000 Y30.4800
G01 Z-2.0000
G01 Z0
G00 Z2.0000
G00 X12.7000 Y33.0200
G01 Z-2.0000
G01 Z0
G00 Z2.0000
G00 X12.7000 Y35.5600
G01 Z-2.0000
G01 Z0
G00 Z2.0000
G00 X25.4000 Y44.4500
G01 Z-2.0000
G01 Z0
G00 Z2.0000
G00 X30.2800 Y44.4500
G01 Z-2.0000
G01 Z0
G00 Z2.0000
G00 X31.7230 Y33.3020
G01 Z-2.0000
G01 Z0
G00 Z2.0000
G00 X36.8300 Y33.0200
G01 Z-2.0000
G01 Z0
G00 Z2.0000
G00 X36.8300 Y30.4800
G01 Z-2.0000
G01 Z0
G00 Z2.0000
G00 X41.1270 Y30.7140
G01 Z-2.0000
G01 Z0
G00 Z2.0000
G00 X44.6780 Y27.7120
G01 Z-2.0000
G01 Z0
G00 Z2.0000
G00 X49.0220 Y27.9400
G01 Z-2.0000
G01 Z0
G00 Z2.0000
G00 X53.8160 Y27.9400
G01 Z-2.0000
G01 Z0
G00 Z2.0000
G00 X58.6740 Y20.5740
G01 Z-2.0000
G01 Z0
G00 Z2.0000
G00 X59.6900 Y12.7000
G01 Z-2.0000
G01 Z0
G00 Z2.0000
G00 X52.0700 Y9.1400
G01 Z-2.0000
G01 Z0
G00 Z2.0000
G00 X47.5860 Y12.7000
G01 Z-2.0000
G01 Z0
G00 Z2.0000
G00 X40.6400 Y12.7000
G01 Z-2.0000
G01 Z0
G00 Z2.0000
G00 X36.8300 Y13.9700
G01 Z-2.0000
G01 Z0
G00 Z2.0000
G00 X32.1910 Y17.9300
G01 Z-2.0000
G01 Z0
G00 Z2.0000
G00 X35.3060 Y2.2860
G01 Z-2.0000
G01 Z0
G00 Z2.0000
G00 X30.2800 Y6.3500
G01 Z-2.0000
G01 Z0
G00 Z2.0000
G00 X25.4000 Y6.3500
G01 Z-2.0000
G01 Z0
G00 Z2.0000
M05
G00 Z0.50


