(G-CODE GENERATED BY FLATCAM v8.994 - www.flatcam.org - Version Date: 2020/11/7)

(Name: CAN2Serial.drl_cnc)
(Type: G-code from Geometry)
(Units: MM)

(Created on Tuesday, 27 July 2021 at 10:12)

(This preprocessor is the default preprocessor used by FlatCAM.)
(It is made to work with MACH3 compatible motion controllers.)


(TOOLS DIAMETER: )
(Tool: 1 -> Dia: 0.6)
(Tool: 2 -> Dia: 0.8)
(Tool: 3 -> Dia: 1.0)
(Tool: 4 -> Dia: 1.52)
(Tool: 5 -> Dia: 3.2)

(FEEDRATE Z: )
(Tool: 1 -> Feedrate: 300)
(Tool: 2 -> Feedrate: 300)
(Tool: 3 -> Feedrate: 300)
(Tool: 4 -> Feedrate: 300)
(Tool: 5 -> Feedrate: 300)

(FEEDRATE RAPIDS: )
(Tool: 1 -> Feedrate Rapids: 1500)
(Tool: 2 -> Feedrate Rapids: 1500)
(Tool: 3 -> Feedrate Rapids: 1500)
(Tool: 4 -> Feedrate Rapids: 1500)
(Tool: 5 -> Feedrate Rapids: 1500)

(Z_CUT: )
(Tool: 1 -> Z_Cut: -2.0)
(Tool: 2 -> Z_Cut: -1.7)
(Tool: 3 -> Z_Cut: -1.7)
(Tool: 4 -> Z_Cut: -1.7)
(Tool: 5 -> Z_Cut: -1.7)

(Tools Offset: )
(Tool: 1 -> Offset Z: 0.0)

(Z_MOVE: )
(Tool: 1 -> Z_Move: 2.0)
(Tool: 2 -> Z_Move: 2)
(Tool: 3 -> Z_Move: 2)
(Tool: 4 -> Z_Move: 2)
(Tool: 5 -> Z_Move: 2)

(Z Toolchange: 15 mm)
(X,Y Toolchange: 0.0000, 0.0000 mm)
(Z Start: None mm)
(Z End: 0.5 mm)
(X,Y End: None mm)
(Steps per circle: 64)
(Preprocessor Excellon: default)

(X range:    2.2100 ...   65.2700  mm)
(Y range:    1.8860 ...   49.8600  mm)

(Spindle Speed: 0 RPM)
G21
G90
G94

G01 F300.00

M5
G00 Z15.0000
T1
G00 X0.0000 Y0.0000                
M6
(MSG, Change to Tool Dia = 0.6000 ||| Total drills for tool T1 = 12)
M0
G00 Z15.0000

G01 F300.00
M03
G00 X11.4300 Y40.6400
G01 Z-2.0000
G01 Z0
G00 Z2.0000
G00 X12.9300 Y40.6400
G01 Z-2.0000
G01 Z0
G00 Z2.0000
G00 X54.6100 Y15.2400
G01 Z-2.0000
G01 Z0
G00 Z2.0000
G00 X56.1100 Y15.2400
G01 Z-2.0000
G01 Z0
G00 Z2.0000
G00 X15.4700 Y11.4300
G01 Z-2.0000
G01 Z0
G00 Z2.0000
G00 X13.9700 Y11.4300
G01 Z-2.0000
G01 Z0
G00 Z2.0000
G00 X10.4140 Y11.4300
G01 Z-2.0000
G01 Z0
G00 Z2.0000
G00 X8.9140 Y11.4300
G01 Z-2.0000
G01 Z0
G00 Z2.0000
G00 X5.3100 Y11.4300
G01 Z-2.0000
G01 Z0
G00 Z2.0000
G00 X3.8100 Y11.4300
G01 Z-2.0000
G01 Z0
G00 Z2.0000
G00 X5.0800 Y40.6400
G01 Z-2.0000
G01 Z0
G00 Z2.0000
G00 X6.5800 Y40.6400
G01 Z-2.0000
G01 Z0
G00 Z2.0000
M05
G00 Z0.50


